X: 1
T:Cape Breton Liberation Army  "CYMRU"
M:C|
L:1/8
Q:80
C:Bob Worrall
S:Hornpipe
K:HP
|: {g}e3/4f/4|
{gf}g{a}g3/4f/4{a}g3/4f/4{g}e3/4d/4|
{gBd}B3/4A/4{g}B3/4c/4{g}d3/4B/4{g}G3/4A/4|  !
{gBeBG}B{g}e3/4f/4{a}g3/4f/4{g}e3/4d/4|
{gBd}((3B3/4A/4{g}B/2c/2d/2){gef}e{g}e3/4f/4:|2 |
{gf}g{a}g3/4f/4{a}g3/4f/4{g}e3/4d/4|  !
{gBd}B3/4A/4{g}B3/4c/4{g}d3/4B/4{g}G3/4A/4|
{gBeBG}B{a}g3/4f/4{g}e3/4d/4{g}G3/4A/4|
{gBd}((3B3/4A/4{g}B/2c/2d/2){gef}e:| |:  !
{g}e3/4f/4|
{a}g3/4e/4{A}e3/4g/4{a}f3/4d/4{G}d3/4f/4|
{gef}((3e3/4d/4{g}B/2c/2d/2){gef}e{g}G3/4A/4|  !
{gBeBG}{g}G3/4A/4{gBeBG}B{a}g3/4f/4|
{gef}((3e3/4d/4{g}B/2c/2d/2){gef}e{g}e3/4f/4|1 |
{a}g3/4e/4{A}e3/4g/4{a}f3/4d/4{G}d3/4f/4|  !
{gef}((3e3/4d/4{g}B/2c/2d/2){gef}e{g}G3/4A/4|
{gBeBG}B{a}g3/4f/4{g}e3/4d/4{g}G3/4A/4|
{gBd}((3B3/4A/4{g}B/2c/2d/2){gef}e:|  !
